icons/linear-ele-building-office.svg

<svg xmlns="http://www.w3.org/2000/svg" width="32px" height="32px" viewBox="0 0 32 32" version="1.1">
    <title>linear-ele-building-office</title>
    <g id="linear-ele-building-office" stroke-width="1" fill-rule="evenodd">
        <path d="M19,3 C19.5522847,3 20,3.44771525 20,4 L20,10 L27,10 C27.5522847,10 28,10.4477153 28,11 L28,27 L29,27 C29.5522847,27 30,27.4477153 30,28 C30,28.5522847 29.5522847,29 29,29 L3,29 C2.44771525,29 2,28.5522847 2,28 C2,27.4477153 2.44771525,27 3,27 L4,27 L4,4 C4,3.44771525 4.44771525,3 5,3 L19,3 Z M26,12 L20,12 L20,15 L23,15 C23.5522847,15 24,15.4477153 24,16 C24,16.5522847 23.5522847,17 23,17 L20,17 L20,21 L23,21 C23.5522847,21 24,21.4477153 24,22 C24,22.5522847 23.5522847,23 23,23 L20,23 L20,27 L26,27 L26,12 Z M18,5 L6,5 L6,27 L18,27 L18,5 Z M15,21 C15.5522847,21 16,21.4477153 16,22 C16,22.5522847 15.5522847,23 15,23 L9,23 C8.44771525,23 8,22.5522847 8,22 C8,21.4477153 8.44771525,21 9,21 L15,21 Z M15,15 C15.5522847,15 16,15.4477153 16,16 C16,16.5522847 15.5522847,17 15,17 L9,17 C8.44771525,17 8,16.5522847 8,16 C8,15.4477153 8.44771525,15 9,15 L15,15 Z M15,9 C15.5522847,9 16,9.44771525 16,10 C16,10.5522847 15.5522847,11 15,11 L9,11 C8.44771525,11 8,10.5522847 8,10 C8,9.44771525 8.44771525,9 9,9 L15,9 Z" id="&#24418;&#29366;" fill-rule="nonzero" />
    </g>
</svg>

<svg xmlns="http://www.w3.org/2000/svg" viewBox="0 0 32 32"><path fill="currentColor" d="M19 3a1 1 0 0 1 1 1v6h7a1 1 0 0 1 1 1v16h1a1 1 0 0 1 0 2H3a1 1 0 0 1 0-2h1V4a1 1 0 0 1 1-1zm7 9h-6v3h3a1 1 0 0 1 0 2h-3v4h3a1 1 0 0 1 0 2h-3v4h6zm-8-7H6v22h12zm-3 16a1 1 0 0 1 0 2H9a1 1 0 0 1 0-2zm0-6a1 1 0 0 1 0 2H9a1 1 0 0 1 0-2zm0-6a1 1 0 0 1 0 2H9a1 1 0 0 1 0-2z"/></svg>
